src/assets/HeaderLogo.svg

<svg width="139" height="34" viewBox="0 0 139 34" fill="none" xmlns="http://www.w3.org/2000/svg">
<circle cx="16.59" cy="17" r="16.09" fill="url(#paint0_linear)" fill-opacity="0.05"/>
<path d="M29.1632 15.9361C29.2748 13.6178 27.6557 12.0799 25.8284 11.0241L24.6406 18.0019C25.4629 17.956 25.8649 18.2682 26.0111 18.4151C26.1938 18.5987 26.6507 19.1496 26.1025 20.0218C27.2445 19.8382 29.0284 18.7364 29.1632 15.9361Z" fill="url(#paint1_linear)"/>
<path fill-rule="evenodd" clip-rule="evenodd" d="M13.5841 7.81212L12.1679 6.389C14.2998 6.12886 19.9248 6.46245 25.3702 9.87792C25.4616 10.2452 25.3702 10.7961 25.3702 10.7961L25.8271 11.0256C26.223 11.5918 26.896 13.2016 26.4209 15.1113C25.9458 17.021 25.1266 17.8351 24.7763 18.0034C24.0454 18.0034 22.8029 18.4258 22.4008 20.2988C21.9988 22.1718 21.2283 22.5788 20.8933 22.5482L12.8531 22.64L7.55395 19.5184L6.77734 13.0455L8.28487 11.0256L10.9802 8.82207L12.8988 8.04165L13.5841 7.81212ZM23.0797 10.486C22.7252 10.8553 22.3937 11.0325 22.299 11.0805C20.2288 10.6401 19.4829 9.5691 19.4829 9.5691C21.4357 9.55706 23.1982 10.0215 24.4877 10.8072C24.4877 10.8072 23.7897 10.581 23.0797 10.486Z" fill="url(#paint2_linear)"/>
<path fill-rule="evenodd" clip-rule="evenodd" d="M22.4279 20.2991C21.0015 20.9956 19.3104 21.3988 17.4972 21.3988C12.4006 21.3988 8.26893 18.2131 8.26893 14.2833C8.26893 11.3785 10.5263 8.88023 13.7622 7.7746C7.61152 8.12422 2.66797 13.0397 2.66797 19.1054C2.66797 26.1036 8.93735 31.886 16.671 31.886C22.446 31.886 27.253 28.5545 29.7665 24.0971C26.3087 24.8709 22.2155 23.4002 22.4279 20.2991Z" fill="url(#paint3_linear)"/>
<path d="M41.4922 23.164H43.6275V19.2144H46.0405C48.7313 19.2144 50.9013 17.7574 50.9013 15.019V14.9838C50.9013 12.5087 49.1306 10.8762 46.2835 10.8762H41.4922V23.164ZM43.6275 17.2659V12.8423H46.1099C47.7071 12.8423 48.7313 13.5795 48.7313 15.0365V15.0716C48.7313 16.3531 47.7244 17.2659 46.1099 17.2659H43.6275Z" fill="url(#paint4_linear)"/>
<path d="M71.1685 23.3747C74.9009 23.3747 77.5396 20.4607 77.5396 17.0201V16.985C77.5396 13.5269 74.9357 10.6656 71.2033 10.6656C67.4709 10.6656 64.8321 13.5795 64.8321 17.0201V17.0552C64.8321 20.5134 67.4361 23.3747 71.1685 23.3747ZM71.2033 21.3735C68.7729 21.3735 67.0716 19.4075 67.0716 17.0201V16.985C67.0716 14.5977 68.7555 12.6667 71.1685 12.6667C73.5989 12.6667 75.3002 14.6328 75.3002 17.0201V17.0552C75.3002 19.4426 73.6163 21.3735 71.2033 21.3735Z" fill="url(#paint5_linear)"/>
<path d="M82.1136 23.164H84.2489V12.8774H88.1201V10.8762H78.2423V12.8774H82.1136V23.164Z" fill="url(#paint6_linear)"/>
<path d="M95.2657 23.3747C98.9981 23.3747 101.637 20.4607 101.637 17.0201V16.985C101.637 13.5269 99.0328 10.6656 95.3004 10.6656C91.568 10.6656 88.9293 13.5795 88.9293 17.0201V17.0552C88.9293 20.5134 91.5333 23.3747 95.2657 23.3747ZM95.3004 21.3735C92.87 21.3735 91.1687 19.4075 91.1687 17.0201V16.985C91.1687 14.5977 92.8526 12.6667 95.2657 12.6667C97.6961 12.6667 99.3973 14.6328 99.3973 17.0201V17.0552C99.3973 19.4426 97.7134 21.3735 95.3004 21.3735Z" fill="url(#paint7_linear)"/>
<path d="M109.511 23.3747C111.768 23.3747 113.209 22.5496 114.442 21.198L113.07 19.7936C112.029 20.7767 111.056 21.3735 109.581 21.3735C107.255 21.3735 105.571 19.425 105.571 17.0201V16.985C105.571 14.5801 107.272 12.6667 109.564 12.6667C110.97 12.6667 111.67 13.2636 112.66 14.1764L114.355 12.5789C113.192 11.4555 111.838 10.6656 109.581 10.6656C105.918 10.6656 103.331 13.5269 103.331 17.0201V17.0552C103.331 20.5836 105.97 23.3747 109.511 23.3747Z" fill="url(#paint8_linear)"/>
<path d="M121.599 23.3747C125.332 23.3747 127.97 20.4607 127.97 17.0201V16.985C127.97 13.5269 125.366 10.6656 121.634 10.6656C117.902 10.6656 115.263 13.5795 115.263 17.0201V17.0552C115.263 20.5134 117.867 23.3747 121.599 23.3747ZM121.634 21.3735C119.204 21.3735 117.502 19.4075 117.502 17.0201V16.985C117.502 14.5977 119.186 12.6667 121.599 12.6667C124.03 12.6667 125.731 14.6328 125.731 17.0201V17.0552C125.731 19.4426 124.047 21.3735 121.634 21.3735Z" fill="url(#paint9_linear)"/>
<path d="M129.978 23.164H138.502V21.198H132.113V10.8762H129.978V23.164Z" fill="url(#paint10_linear)"/>
<path d="M58.5746 10.9525C60.0737 10.9525 61.2491 11.4061 62.0156 12.1736C62.6459 12.854 63.0036 13.7437 63.0036 14.8078L63.0032 14.9078C62.9786 16.8317 61.8611 18.0055 60.283 18.5082L60.1759 18.5411L63.3954 23.164H60.9084L57.9784 18.9074L56.4404 18.9071L57.5197 17.0055L58.4213 17.0059C59.8863 17.0059 60.8307 16.2561 60.8728 15.0497L60.8743 14.9648L60.8739 14.8834C60.853 13.5878 59.953 12.9063 58.4043 12.9063H55.3551L55.3547 16.6812L55.3531 16.681V19.4042L55.3547 19.4033L55.3551 23.164H53.2598V10.9525H58.5746Z" fill="url(#paint11_linear)"/>
<defs>
<linearGradient id="paint0_linear" x1="16.59" y1="12.1701" x2="16.59" y2="33.513" gradientUnits="userSpaceOnUse">
<stop stop-color="#FF9230"/>
<stop offset="1" stop-color="#FFD5AB"/>
</linearGradient>
<linearGradient id="paint1_linear" x1="26.1553" y1="13.2043" x2="34.7596" y2="15.3136" gradientUnits="userSpaceOnUse">
<stop stop-color="#FFC58F"/>
<stop offset="1" stop-color="#FF7C7C"/>
</linearGradient>
<linearGradient id="paint2_linear" x1="11.509" y1="3.95314" x2="27.7906" y2="18.7227" gradientUnits="userSpaceOnUse">
<stop stop-color="#FFC58F"/>
<stop offset="1" stop-color="#FF7C7C"/>
</linearGradient>
<linearGradient id="paint3_linear" x1="11.7325" y1="13.6169" x2="33.8367" y2="29.6792" gradientUnits="userSpaceOnUse">
<stop stop-color="#FFC58F"/>
<stop offset="1" stop-color="#FF7C7C"/>
</linearGradient>
<linearGradient id="paint4_linear" x1="41.4922" y1="21.5441" x2="46.7931" y2="-6.00379" gradientUnits="userSpaceOnUse">
<stop stop-color="#FFC58F"/>
<stop offset="1" stop-color="#FF7C7C"/>
</linearGradient>
<linearGradient id="paint5_linear" x1="41.4922" y1="21.5441" x2="46.7931" y2="-6.00379" gradientUnits="userSpaceOnUse">
<stop stop-color="#FFC58F"/>
<stop offset="1" stop-color="#FF7C7C"/>
</linearGradient>
<linearGradient id="paint6_linear" x1="41.4922" y1="21.5441" x2="46.7931" y2="-6.00379" gradientUnits="userSpaceOnUse">
<stop stop-color="#FFC58F"/>
<stop offset="1" stop-color="#FF7C7C"/>
</linearGradient>
<linearGradient id="paint7_linear" x1="41.4922" y1="21.5441" x2="46.7931" y2="-6.00379" gradientUnits="userSpaceOnUse">
<stop stop-color="#FFC58F"/>
<stop offset="1" stop-color="#FF7C7C"/>
</linearGradient>
<linearGradient id="paint8_linear" x1="41.4922" y1="21.5441" x2="46.7931" y2="-6.00379" gradientUnits="userSpaceOnUse">
<stop stop-color="#FFC58F"/>
<stop offset="1" stop-color="#FF7C7C"/>
</linearGradient>
<linearGradient id="paint9_linear" x1="41.4922" y1="21.5441" x2="46.7931" y2="-6.00379" gradientUnits="userSpaceOnUse">
<stop stop-color="#FFC58F"/>
<stop offset="1" stop-color="#FF7C7C"/>
</linearGradient>
<linearGradient id="paint10_linear" x1="41.4922" y1="21.5441" x2="46.7931" y2="-6.00379" gradientUnits="userSpaceOnUse">
<stop stop-color="#FFC58F"/>
<stop offset="1" stop-color="#FF7C7C"/>
</linearGradient>
<linearGradient id="paint11_linear" x1="41.4922" y1="21.5441" x2="46.7931" y2="-6.00379" gradientUnits="userSpaceOnUse">
<stop stop-color="#FFC58F"/>
<stop offset="1" stop-color="#FF7C7C"/>
</linearGradient>
</defs>
</svg>

<svg width="139" height="34" fill="none" xmlns="http://www.w3.org/2000/svg"><circle cx="16.59" cy="17" r="16.09" fill="url(#paint0_linear)" fill-opacity=".05"/><path d="M29.163 15.936c.112-2.318-1.507-3.856-3.335-4.912l-1.187 6.978c.822-.046 1.224.266 1.37.413.183.184.64.735.091 1.607 1.142-.184 2.926-1.286 3.061-4.086z" fill="url(#paint1_linear)"/><path fill-rule="evenodd" clip-rule="evenodd" d="M13.584 7.812L12.168 6.39c2.132-.26 7.757.073 13.202 3.489.092.367 0 .918 0 .918l.457.23c.396.566 1.069 2.176.594 4.085-.475 1.91-1.294 2.724-1.645 2.892-.73 0-1.973.423-2.375 2.296-.402 1.873-1.173 2.28-1.508 2.25l-8.04.091-5.299-3.122-.777-6.473 1.508-2.02 2.695-2.203 1.919-.78.685-.23zm9.496 2.674c-.355.37-.686.546-.781.595-2.07-.44-2.816-1.512-2.816-1.512 1.953-.012 3.715.452 5.005 1.238 0 0-.698-.226-1.408-.321z" fill="url(#paint2_linear)"/><path fill-rule="evenodd" clip-rule="evenodd" d="M22.428 20.3c-1.427.696-3.118 1.099-4.93 1.099-5.097 0-9.23-3.186-9.23-7.116 0-2.904 2.258-5.403 5.494-6.508-6.15.35-11.094 5.265-11.094 11.33 0 6.999 6.27 12.781 14.003 12.781 5.775 0 10.582-3.331 13.096-7.789-3.458.774-7.552-.697-7.34-3.798z" fill="url(#paint3_linear)"/><path d="M41.492 23.164h2.136v-3.95h2.413c2.69 0 4.86-1.457 4.86-4.195v-.035c0-2.475-1.77-4.108-4.618-4.108h-4.79v12.288zm2.136-5.898v-4.424h2.482c1.597 0 2.621.737 2.621 2.194v.036c0 1.281-1.007 2.194-2.621 2.194h-2.483z" fill="url(#paint4_linear)"/><path d="M71.168 23.375c3.733 0 6.372-2.914 6.372-6.355v-.035c0-3.458-2.604-6.32-6.337-6.32-3.732 0-6.37 2.915-6.37 6.355v.035c0 3.458 2.603 6.32 6.335 6.32zm.035-2.002c-2.43 0-4.131-1.966-4.131-4.353v-.035c0-2.387 1.683-4.318 4.096-4.318 2.43 0 4.132 1.966 4.132 4.353v.035c0 2.388-1.684 4.319-4.097 4.319z" fill="url(#paint5_linear)"/><path d="M82.114 23.164h2.135V12.877h3.871v-2h-9.878v2h3.872v10.287z" fill="url(#paint6_linear)"/><path d="M95.266 23.375c3.732 0 6.371-2.914 6.371-6.355v-.035c0-3.458-2.604-6.32-6.337-6.32-3.732 0-6.37 2.915-6.37 6.355v.035c0 3.458 2.603 6.32 6.336 6.32zm.034-2.002c-2.43 0-4.131-1.966-4.131-4.353v-.035c0-2.387 1.684-4.318 4.097-4.318 2.43 0 4.131 1.966 4.131 4.353v.035c0 2.388-1.684 4.319-4.097 4.319z" fill="url(#paint7_linear)"/><path d="M109.511 23.375c2.257 0 3.698-.825 4.931-2.177l-1.372-1.404c-1.041.983-2.014 1.58-3.489 1.58-2.326 0-4.01-1.949-4.01-4.354v-.035c0-2.405 1.701-4.318 3.993-4.318 1.406 0 2.106.597 3.096 1.51l1.695-1.598c-1.163-1.123-2.517-1.913-4.774-1.913-3.663 0-6.25 2.86-6.25 6.354v.035c0 3.529 2.639 6.32 6.18 6.32z" fill="url(#paint8_linear)"/><path d="M121.599 23.375c3.733 0 6.371-2.914 6.371-6.355v-.035c0-3.458-2.604-6.32-6.336-6.32s-6.371 2.915-6.371 6.355v.035c0 3.458 2.604 6.32 6.336 6.32zm.035-2.002c-2.43 0-4.132-1.966-4.132-4.353v-.035c0-2.387 1.684-4.318 4.097-4.318 2.431 0 4.132 1.966 4.132 4.353v.035c0 2.388-1.684 4.319-4.097 4.319z" fill="url(#paint9_linear)"/><path d="M129.978 23.164h8.524v-1.966h-6.389V10.876h-2.135v12.288z" fill="url(#paint10_linear)"/><path d="M58.575 10.953c1.499 0 2.674.453 3.44 1.22.63.681.989 1.57.989 2.635v.1c-.025 1.924-1.143 3.098-2.721 3.6l-.107.033 3.22 4.623h-2.488l-2.93-4.257H56.44l1.08-1.901h.901c1.465 0 2.41-.75 2.452-1.956l.001-.085v-.082c-.021-1.295-.921-1.977-2.47-1.977h-3.049v3.775h-.002v2.723h.002v3.76H53.26V10.952h5.315z" fill="url(#paint11_linear)"/><defs><linearGradient id="paint6_linear" x1="41.492" y1="21.544" x2="46.793" y2="-6.004" gradientUnits="userSpaceOnUse"><stop stop-color="#FFC58F"/><stop offset="1" stop-color="#FF7C7C"/></linearGradient><linearGradient id="paint0_linear" x1="16.59" y1="12.17" x2="16.59" y2="33.513" gradientUnits="userSpaceOnUse"><stop stop-color="#FF9230"/><stop offset="1" stop-color="#FFD5AB"/></linearGradient><linearGradient id="paint2_linear" x1="11.509" y1="3.953" x2="27.791" y2="18.723" gradientUnits="userSpaceOnUse"><stop stop-color="#FFC58F"/><stop offset="1" stop-color="#FF7C7C"/></linearGradient><linearGradient id="paint3_linear" x1="11.732" y1="13.617" x2="33.837" y2="29.679" gradientUnits="userSpaceOnUse"><stop stop-color="#FFC58F"/><stop offset="1" stop-color="#FF7C7C"/></linearGradient><linearGradient id="paint4_linear" x1="41.492" y1="21.544" x2="46.793" y2="-6.004" gradientUnits="userSpaceOnUse"><stop stop-color="#FFC58F"/><stop offset="1" stop-color="#FF7C7C"/></linearGradient><linearGradient id="paint5_linear" x1="41.492" y1="21.544" x2="46.793" y2="-6.004" gradientUnits="userSpaceOnUse"><stop stop-color="#FFC58F"/><stop offset="1" stop-color="#FF7C7C"/></linearGradient><linearGradient id="paint1_linear" x1="26.155" y1="13.204" x2="34.76" y2="15.314" gradientUnits="userSpaceOnUse"><stop stop-color="#FFC58F"/><stop offset="1" stop-color="#FF7C7C"/></linearGradient><linearGradient id="paint7_linear" x1="41.492" y1="21.544" x2="46.793" y2="-6.004" gradientUnits="userSpaceOnUse"><stop stop-color="#FFC58F"/><stop offset="1" stop-color="#FF7C7C"/></linearGradient><linearGradient id="paint8_linear" x1="41.492" y1="21.544" x2="46.793" y2="-6.004" gradientUnits="userSpaceOnUse"><stop stop-color="#FFC58F"/><stop offset="1" stop-color="#FF7C7C"/></linearGradient><linearGradient id="paint9_linear" x1="41.492" y1="21.544" x2="46.793" y2="-6.004" gradientUnits="userSpaceOnUse"><stop stop-color="#FFC58F"/><stop offset="1" stop-color="#FF7C7C"/></linearGradient><linearGradient id="paint10_linear" x1="41.492" y1="21.544" x2="46.793" y2="-6.004" gradientUnits="userSpaceOnUse"><stop stop-color="#FFC58F"/><stop offset="1" stop-color="#FF7C7C"/></linearGradient><linearGradient id="paint11_linear" x1="41.492" y1="21.544" x2="46.793" y2="-6.004" gradientUnits="userSpaceOnUse"><stop stop-color="#FFC58F"/><stop offset="1" stop-color="#FF7C7C"/></linearGradient></defs></svg>
